X:1
T: The Crieff Meeting
C:
R:Reel
Q: 232
K:A
M:4/4
L:1/8
|:f|ea ec A1/2A1/2A a2|B=g dg B=G Gf|ea ec A1/2A1/2A a2|fa ea cA Af|
ea ec A1/2A1/2A a2|B=g dg B=G Gf|ea ec A1/2A1/2A a2|fa ea cA Ae|
cA eA cA aA|B=g dg B=G GB|cA eA cA ae|fa ea cA Ae|
cA eA cA aA|B=g dg B=G GB|cA ae fa ea|df Be cA A:|
